X: 1
T: Funny Tailor, The
M: 3/4
L: 1/8
R: waltz
K: Gmaj
M:3/8     B/2A/|GED GAB|GBA G2 G|G2 A B2 A|Bgf efe|
d2 B d2 G|B2 A Bgf|efe d2 B|
d2 B/2A/ GED|GAB GBA|G2 G G2:|
